icons/folder_open.svg

<svg width="16" height="16" viewBox="0 0 16 16" fill="none" xmlns="http://www.w3.org/2000/svg">
<path fill-rule="evenodd" clip-rule="evenodd" d="M12.5 6.5H8.71084C8.24474 6.53089 7.77858 6.43058 7.36562 6.2095C6.92436 5.97327 6.56417 5.61003 6.33167 5.1668L6.32489 5.15388L6.02295 4.55H3.5V11.5H12.5V6.5ZM14 6.05V12C14 12.2652 13.8946 12.5196 13.7071 12.7071C13.5196 12.8946 13.2652 13 13 13H3.05C2.91453 13.0068 2.7791 12.9859 2.65195 12.9387C2.52479 12.8915 2.40857 12.8189 2.31035 12.7254C2.21213 12.6318 2.13396 12.5193 2.08061 12.3946C2.02726 12.2699 1.99983 12.1356 2 12V4.05C2 3.78479 2.10536 3.53043 2.29289 3.3429C2.48043 3.15536 2.73479 3.05 3 3.05H6.3C6.49633 3.04367 6.69018 3.0953 6.85734 3.19845C7.02451 3.3016 7.1576 3.45169 7.24 3.63L7.66 4.47C7.753 4.6473 7.89708 4.79259 8.07358 4.88709C8.25009 4.98158 8.45089 5.02091 8.65 5H13C13.1356 4.99983 13.2699 5.02726 13.3946 5.08061C13.5193 5.13396 13.6318 5.21213 13.7254 5.31035C13.8189 5.40857 13.8915 5.52479 13.9387 5.65195C13.9859 5.7791 14.0068 5.91454 14 6.05Z" fill="#909090"/>
</svg>

<svg xmlns="http://www.w3.org/2000/svg" width="16" height="16" fill="none"><path fill="#909090" fill-rule="evenodd" d="M12.5 6.5H8.71a2.5 2.5 0 0 1-2.378-1.333l-.007-.013-.302-.604H3.5v6.95h9v-5Zm1.5-.45V12a1 1 0 0 1-1 1H3.05A1 1 0 0 1 2 12V4.05a1 1 0 0 1 1-1h3.3a1 1 0 0 1 .94.58l.42.84a1 1 0 0 0 .99.53H13a1 1 0 0 1 1 1.05Z" clip-rule="evenodd"/></svg>
